X:1
T:Great is the Lord, and with great praise
T:Great is the Lord, and with great praise (Matthew Cooke)
C:Matthew Cooke
Z:p20, Twelve Psalm
Z:Tunes, London: [c1791]
%%score [ 1 2 3 4 ]
L:1/8
M:4/4
K:G
V:1 treble nm="Air" snm="S."
V:2 treble nm="[Alto]" snm="A."
V:3 treble-8 transpose=-12 nm="Tenor" snm="T."
V:4 bass nm="[Bass]" snm="B."
V:1
 G2 d>c (cB) z d | (eB)(cd) (cB) z d | (BG)(dB) (eG)(cB) |[M:2/4] (BA) z d |[M:4/4] d2 e2 e2 f2 | %5
w: O Lord, ac- cor- * ding|to _ thy _ name _ For|e- * ver _ is _ thy _|praise, _ And|thy right hand, O|
w: Great is the Lord, _ and|with _ great _ praise _ To|be _ ad- * van- * ced _|still, _ With-|in the ci- ty|
w: With- in the pa- * la-|ces _ there- * of _ God|is _ a _ re- * fuge _|known; _ For|lo, the kings are|
 f2 g2 g2 z g | (fd)(Be) d2 ^c2 | d2 z2 z4 | z8 | z8 | z8 | z8 | z8 | z8 | z8 | %15
w: Lord, is full Of|right- * eous- * ness al-|ways:||||||||
w: of our God, Up-|on _ his _ ho- ly|hill.||||||||
w: ga- ther’d, and To-|ge- * ther _ they are|gone:||||||||
 z4 z c (c/d/)(c/B/) | ABcd e3 d | (dc)(BA) B2 A2 | G8 |] %19
w: Al- so _ of _|Ju- dah grant, O Lord, The|daugh- * ters _ to re-|joice.|
w: The ci- * ty _|of the migh- ty King On|her _ north _ side doth|stand.|
w: A- sto- * nish’d _|much, and sud- den- ly Were|dri- * ven _ back with|fear.|
V:2
 D2 D>D D2 z G | (GD)(GA) G2 z D | (DB,) G2 G2 (FG) |[M:2/4] (GF) z F |[M:4/4] D2 G2 E2 A2 | %5
w: O Lord, ac- cor- ding|to _ thy _ name For|e- * ver is thy _|praise, _ And|thy right hand, O|
w: Great is the Lord, and|with _ great _ praise To|be _ ad- van- ced _|still, _ With-|in the ci- ty|
w: With- in the pa- la-|ces _ there- * of God|is _ a re- fuge _|known; _ For|lo, the kings are|
 F2 D2 E2 z E | A2 G2 F2 E2 | F2 z D (DA,) B,2 | (B,A,)(A,B,) (CB,/C/) (DC) | (CB,) z E (^DE)(FG) | %10
w: Lord, is full Of|right- eous- ness al-|ways: For thy _ jud-|gments _ let _ Si- * * on _|mount _ Be fill- * ed _|
w: of our God, Up-|on his ho- ly|hill. Mount Si- * on|is _ a _ plea- * * sant _|place, _ It gladd- * ’neth _|
w: ga- ther’d, and To-|ge- ther they are|gone: But when _ they|did _ be- * hold _ _ it _|so, _ They won- * der’d, _|
 (EF/G/) (FE) (E^D) z D | (EB,)(ED) ^C3 C | (DA,)(DC) B,3 D | (GD)(EF) (GD) (E/D/C/B,/) | %14
w: full _ _ with _ joys; _ Al-|so _ of _ Ju- dah|grant, _ O _ Lord, The|daugh- * ters _ to _ re- * * *|
w: all _ _ the _ land, _ The|ci- * ty _ of the|migh- * ty _ King On|her _ north _ side _ doth _ _ _|
w: and _ _ they _ were _ A-|sto- * nish’d _ much, and|sud- * den- * ly Were|dri- * ven _ back _ with _ _ _|
 A, z z2 z4 | z G (G/A/)(G/F/) EA (A/B/)(A/G/) | FGGG G3 G | G2 G2 G2 F2 | G8 |] %19
w: joice,|Al- so _ of _ Ju- dah grant, _ of _|Ju- dah grant, O Lord, The|daugh- ters to re-|joice.|
w: stand,|the ci- * ty _ of the migh- * ty _|King, the migh- ty King On|her north side doth|stand.|
w: fear,|A- sto- * nish’d _ much, and sud- * den- *|ly, and sud- den- ly Were|dri- ven back with|fear.|
V:3
 B2 A>A G2 z G | (EF)(GF) d2 z A | B2 G2 (cG) d2 |[M:2/4] d2 z A |[M:4/4] (BA)(BG) (^cB)(cA) | %5
w: O Lord, ac- cor- ding|to _ thy _ name For|e- ver is _ thy|praise, And|thy _ right _ hand, _ O _|
w: Great is the Lord, and|with _ great _ praise To|be ad- van- * ced|still, With-|in _ the _ ci- * ty _|
w: With- in the pa- la-|ces _ there- * of God|is a re- * fuge|known; For|lo, _ the _ kings _ are _|
 (d^c)(dB) c2 z A | d2 B2 A3 A | A2 z F F2 G2 | (GF)(FG) G2 F2 | G2 z B B2 B2 | G2 A2 (GF) z F | %11
w: Lord, _ is _ full Of|right- eous- ness al-|ways: For thy jud-|gments _ let _ Si- on|mount Be fill- ed|full with joys; _ Al-|
w: of _ our _ God, Up-|on his ho- ly|hill. Mount Si- on|is _ a _ plea- sant|place, It gladd- ’neth|all the land, _ The|
w: ga- * ther’d, _ and To-|ge- ther they are|gone: But when they|did _ be- * hold it|so, They won- der’d,|and they were _ A-|
 E2 E2 (AE)(AG) | F2 F2 G3 A | B2 (Gc) B2 (c/B/A/G/) | F z z2 z d (d/e/)(d/c/) | %15
w: so of Ju- * dah _|grant, O Lord, The|daugh- ters _ to re- * * *|joice, al- so _ of _|
w: ci- ty of _ the _|migh- ty King On|her north _ side doth _ _ _|stand, the ci- * ty _|
w: sto- nish’d much, _ and _|sud- den- ly Were|dri- ven _ back with _ _ _|fear, a- sto- * nish’d _|
 BB (B/c/)(B/A/) Gede | fdcB c3 d | G2 (Be) d3 c | B8 |] %19
w: Ju- dah grant, _ O _ Lord, al- so of|Ju- dah grant, O Lord, The|daugh- ters _ to re-|joice.|
w: of the migh- * ty _ King, the ci- ty|of the migh- ty King On|her north _ side doth|stand.|
w: much, and sud- * den- * ly, a- sto- nish’d|much, and sud- den- ly Were|dri- ven _ back with|fear.|
V:4
 G,2 F,>D, G,2 z B,, | (C,D,)(E,F,) G,2 z F, | G,2 B,,2 (C,B,,)(A,,G,,) |[M:2/4] D,2 z F, | %4
w: O Lord, ac- cor- ding|to _ thy _ name For|e- ver is _ thy _|praise, And|
w: Great is the Lord, and|with _ great _ praise To|be ad- van- * ced _|still, With-|
w: With- in the pa- la-|ces _ there- * of God|is a re- * fuge _|known; For|
[M:4/4]"^Notes:The first verse only of the text is underlaid in the source, with the other two verses given here printed afterthe music: these have been underlaid editorially.The change of time signature in bar 4 is editorial: this bar only has two beats (with music as given here)in the source, but does not have a different time signature. This bar is at the end of the first system, and is notfollowed by a bar line - while this suggests it would be completed at the start of the next system, this is not thecase, as bar 5 has the full 4 beats. To avoid changing the rhythm, bar 4 has therefore been marked as 2/4.Original clefs treble, alto, tenor, bass." (G,F,)(G,E,) (A,G,)(A,F,) | %5
w: thy _ right _ hand, _ O _|
w: in _ the _ ci- * ty _|
w: lo, _ the _ kings _ are _|
 (B,A,)(B,G,) A,2 z ^C, | (D,F,) G,2 A,2 A,,2 | D,2 z D, D,2 G,2 | D,2 (C,B,,) A,,2 D,2 | %9
w: Lord, _ is _ full Of|right- * eous- ness al-|ways: For thy jud-|gments let _ Si- on|
w: of _ our _ God, Up-|on _ his ho- ly|hill. Mount Si- on|is a _ plea- sant|
w: ga- * ther’d, _ and To-|ge- * ther they are|gone: But when they|did be- * hold it|
 G,,2 z G, (F,G,)(^D,E,) | C,2 C,2 B,,2 z A,, | ^G,,3 G,, A,,2 A,,2 | D,3 D, G,3 F, | %13
w: mount Be fill- * ed _|full with joys; Al-|so of Ju- dah|grant, O Lord, The|
w: place, It gladd- * ’neth _|all the land, The|ci- ty of the|migh- ty King On|
w: so, They won- * der’d, _|and they were A-|sto- nish’d much, and|sud- den- ly Were|
 (E,B,,)(C,A,,) B,,2 G,,2 | D,D, (D,/E,/)(D,/C,/) B,,B,, (B,,/C,/)(B,,/A,,/) | %15
w: daugh- * ters _ to re-|joice, al- so _ of _ Ju- dah grant, _ O _|
w: her _ north _ side doth|stand, the ci- * ty _ of the migh- * ty _|
w: dri- * ven _ back with|fear, a- sto- * nish’d _ much, and sud- * den- *|
 G,,G,,G,G, C,A,,B,,C, | D,G,E,D, C,3 B,, | E,2 (D,C,) D,2 D,2 | G,,8 |] %19
w: Lord, al- so of Ju- dah grant, of|Ju- dah grant, O Lord, The|daugh- ters _ to re-|joice.|
w: King, the ci- ty of the migh- ty|King, the migh- ty King On|her north _ side doth|stand.|
w: ly, a- sto- nish’d much, and sud- den-|ly, and sud- den- ly Were|dri- ven _ back with|fear.|

